X:1
T:Morir non puo il mio cuore
T:Morir non puo
T:Maddalena Casulana, c1544 - c1590
T:Edition Engraved by Withburga Music 2015
T:Edition Engraved by Withburga Music 2015
T:Edition Engraved by Withburga Music 2015
C:Maddelena Casulana
Z:Edition Engraved by Withburga Music 2015
%%score [ 1 2 3 4 ]
L:1/8
M:4/2
K:F
V:1 treble nm="S"
V:2 treble nm="A"
V:3 treble-8 nm="T"
V:4 bass nm="B"
V:1
 G8 B8- | B4 G4 B4 c4 | B6 AG A8 | G4 G4 B3 B B2 B2 | A4 G4 B2 c2 d4 | =B8 z8 | z4 A4 c6 c2 | %7
w: Mo- rir|_ non puo'il mio|cuo- * * *|re, uc- ci- der- lo vor-|rei, poi che vi pia-|ce.|Ma trar no|
 A4 d8 c4- | c2 B2 B4- B2 AG A4 | B2 B2 A2 G2 F4 F4- | F2 F2 F4 F4 D4 | D8 D4 z2 D2 | %12
w: si puo fuo-||re del pet- to vostr'- o-|* ve gran tem- po|gia- ce. Et|
 F3 G A2 A2 c4 G4 | A2 c2 =B4 c2 C2 C2 C2 | C4 D4 D8 | z2 E2 E2 E2 E4 ^F4 | G4 z2 G2 A2 A2 A4 | %17
w: uc- ci- den- dol'- io, co-|me de- si- o, so che mo-|re- ste voi,|so che mor- re- ste|voi, so che mor- re-|
 =B4 c2 c2 ^c4 d4 | d2 D2 E4 ^F4 G2 D2 | F4 E4 D4 D4 | z2 E2 E2 E2 E4 ^F4 | G4 z2 G2 A2 A2 A4 | %22
w: sti voi, mor- re- ste|voi, mor- re- ste voi, mor-|rend'- an- ch'i- o,|so che mor- re- ste|voi so che mor- re-|
 =B4 c2 c2 ^c4 d4 | d2 D2 E4 ^F4 G2 D2 | F4 E4 D8 | D16 |] %26
w: ste voi, mor- re- ste|voi, mor- re- ste voi, mor-|rend- an- ch'i-|o.|
V:2
 z16 | z4 C4 G6 _E2 | G4 G8 ^F4 | G4 E4 F3 F F2 F2 | F4 E4 F2 G4 ^F2 | G4 D8 (F4 | %6
w: |Mo- rir non|puo'il mio cuo-|re, uc- ci- der- lo vor-|rei, poi che vi pia-|ce. Ma trar|
 F2) F2 F4 G4 F4 | F8 z4 A4 | G4 F4 F8 | F2 F2 F2 D2 D4 D4- | D2 D2 D4 C4 B,4 | A,8 =B,4 z2 B,2 | %12
w: _ non si puo fuo-|re, non|si puo fuo-|re del pet- to vostr'- o-|* ve gran tem- po|gia- ce. Et|
 C3 C C2 D2 E4 C4 | C2 C2 D4 E4 z4 | z2 A,2 A,2 A,2 A,4 =B,4 | C2 C2 C2 C2 ^C4 D4 | %16
w: uc- ci- den- dol'- io, co-|me de- si- o,|so che mor- re- ste|voi, so che mor- re- ste|
 D2 D2 E2 E2 E4 ^F4 | G2 D2 E8 ^F4 | G8 z4 G,4 | C6 B,2 A,4 =B,4 | z2 C2 C2 C2 ^C4 D4 | %21
w: voi, so che mor- re- sti-|voi, mor- re- sti|voi, mor-|rend'- an- ch'i- o,|so che mor- re- ste|
 D2 D2 E2 E2 E4 ^F4 | G2 D2 E8 ^F4 | G8 z4 G,4 | C6 B,2 A,8 | =B,16 |] %26
w: voi, so che mor- re- ste|voi, mor- re- ste|voi, mo-|rend'- an- ch'i-|o.|
V:3
 z8 G8 | _e12 c4 | _e4 e4 d8 | G4 c4 d3 d d2 d2 | c4 c4 B2 G2 A4 | G4 G4 B6 B2 | A4 d4 c4 A4 | %7
w: Mo-|rir non|puo'il mio cuo-|re, uc- ci- der- lo vor-|rei, poi che vi pia-|ce. Ma trar non|si puo fuo- re,|
 z4 A4 f6 f2 | _e4 d4 c8 | d2 d2 c2 B2 A4 B4- | B2 B2 B4 A4 G4 | ^F8 G4 z2 G2 | A3 G F2 F2 G4 E4 | %13
w: ma trar non|si puo fuo-|re del pet- to vostr'- o-|* ve gran tem- po|gia- ce. Et|uc- ci- den- dol'- io, co-|
 F2 E2 G8 A4 | z2 F2 F2 F2 ^F4 G4 | G4 z2 G2 A2 A2 A4 | =B4 c2 c2 ^c4 d4 | d4 z2 G2 A8 | %18
w: me de- si- o,|so che mor- re- ste|voi, so che mor- re-|ste voi, mor- re- ste|voi, mor- re-|
 =B4 c4 A4 _B4 | A6 G3 ^F F2 G4- | G4 z2 G2 A2 A2 A4 | =B4 c2 c2 ^c4 d4 | d4 z2 G2 A8 | %23
w: ste voi, mo- rend'-|an- ch'i- * * o,|_ so che mor- re-|ste voi, mor- re- ste|voi, mor- re-|
 =B4 c4 A4 (_B4 | B2) A4 G4 ^F2 F4 | G16 |] %26
w: ste voi, mo- rend'-|* an- ch'i- * *|o.|
V:4
 z16 | z16 | z16 | z4 C,4 B,,3 B,, B,,2 B,,2 | F,,4 C,4 D,2 E,2 D,4 | G,,8 z4 D,4 | %6
w: |||uc- ci- der- lo vor-|rei, poi che vi pia-|ce. Ma|
 F,6 F,2 E,4 F,4 | F,2 E,2 D,2 C,2 B,,4 F,,2 F,2 | G,4 B,4 F,8 | B,,2 B,,2 F,,2 G,,2 D,4 B,,4- | %10
w: trar non si puo|fuo- * * * * re, non|si puo fuo-|re del pet- to vostr'- o-|
 B,,2 B,,2 B,,4 F,4 G,4 | D,8 G,,4 G,4 | F,3 E, F,2 D,2 C,4 C,4 | A,,2 A,,2 G,,4 C,4 z2 F,2 | %14
w: * ve gran tem- po|gia- ce. Et|uc- ci- den- dol'- io, co-|me de- si- o, so|
 F,2 F,2 D,4 D,4 G,,2 G,,2 | C,2 C,2 C,4 A,,4 D,4 | z2 G,,2 C,2 C,2 A,,4 D,4 | %17
w: che mor- re- ste voi, so|che mor- re- ste voi,|so che mor- re- ste|
 G,,2 G,,2 C,4 A,,4 D,2 D,2 | G,4 C,4 D,4 z2 G,2 | F,4 C,4 D,4 G,,2 G,,2 | C,2 C,2 C,4 A,,4 D,4 | %21
w: voi, mor- re- ste voi, mor-|re- ste voi, mo-|rend'- an- ch'i- o, so|che mor- re- ste voi,|
 z2 G,,2 C,2 C,2 A,,4 D,4 | G,,2 G,,2 C,4 A,,4 D,2 D,2 | G,4 C,4 D,4 z2 G,2 | F,4 C,4 D,8 | %25
w: so che mor- re- ste|voi, mor- re- ste- voi, mor-|re- ste voi, mo-|rend'- an- ch'i-|
 G,,16 |] %26
w: o.|

